packages/icons/svg/Media_Sound_24px.svg

<svg xmlns="http://www.w3.org/2000/svg" viewBox="0 0 24 24"><path d="M13.47 4.12a1 1 0 00-1 0L6.7 8H3a1 1 0 00-1 1v6a1 1 0 001 1h3.7l5.75 3.83A1 1 0 0014 19V5a1 1 0 00-.53-.88zM4 10h2v4H4zm8 7.13l-4-2.67V9.54l4-2.67zM17.39 8.37A1 1 0 0016 8.1a1 1 0 00-.27 1.38A4.53 4.53 0 0116.5 12a4.44 4.44 0 01-.79 2.54 1 1 0 00.29 1.39 1 1 0 001.39-.25 6.5 6.5 0 000-7.31z"/><path d="M19.79 5.74A1 1 0 1018.24 7a8 8 0 010 10 1 1 0 00.76 1.61 1 1 0 00.79-.37A10.1 10.1 0 0022 12a10 10 0 00-2.21-6.26z"/></svg>

<svg xmlns="http://www.w3.org/2000/svg" viewBox="0 0 24 24"><defs></defs><g id="Icon"><path  d="M13.47,4.12a1,1,0,0,0-1,0L6.7,8H3A1,1,0,0,0,2,9v6a1,1,0,0,0,1,1H6.7l5.75,3.83A1,1,0,0,0,14,19V5A1,1,0,0,0,13.47,4.12ZM4,10H6v4H4Zm8,7.13L8,14.46V9.54l4-2.67Z"/><path  d="M17.39,8.37A1,1,0,0,0,16,8.1a1,1,0,0,0-.27,1.38A4.53,4.53,0,0,1,16.5,12a4.44,4.44,0,0,1-.79,2.54A1,1,0,0,0,16,15.93a1,1,0,0,0,1.39-.25,6.5,6.5,0,0,0,0-7.31Z"/><path  d="M19.79,5.74A1,1,0,1,0,18.24,7a8,8,0,0,1,0,10A1,1,0,0,0,19,18.61a1,1,0,0,0,.79-.37A10.1,10.1,0,0,0,22,12,10,10,0,0,0,19.79,5.74Z"/></g></svg>
